icon-svg/upstairs-3.svg

<svg xmlns="http://www.w3.org/2000/svg" viewBox="0 0 24 24"><path fill="#44739e" d="M14.533 10.17a2.016 2.016 0 0 0 1.593-1.882c0-.877-.65-1.9-2.479-1.9a4.53 4.53 0 0 0-2.219.571l.216.564a3.65 3.65 0 0 1 1.764-.5c1.3 0 1.762.747 1.762 1.446 0 1.054-1.108 1.6-2.2 1.6h-.542v.573h.542c1.154 0 2.508.489 2.523 1.868a1.68 1.68 0 0 1-.476 1.207 2.38 2.38 0 0 1-1.75.612 4.6 4.6 0 0 1-1.957-.478l-.232.619a5 5 0 0 0 2.201.5c2.215.007 3.2-1.213 3.2-2.423a2.14 2.14 0 0 0-1.924-2.061l-.123-.023v-.232Zm-.315-6.156L12.199 3 7.381 5.992 9.43 7.227Zm-1.006 13.072-.107-.068-5.011-3.172-1.081.605 5.285 3.216Zm-3.824-4.524 1.7 1.055.073-.192.148.092a4 4 0 0 0 .942.37L9.35 12.11Zm-3.13-5.364.987-.572L4.289 5.34l-.117 3.067 1.071-.621 2.307 2.969L2 14.491l.873 1.032 6.596-4.462Zm10.511 5.481a2.5 2.5 0 0 1-.095.553l.033.018-.049.033a2.7 2.7 0 0 1-1.782 1.747l-.369.237-.167-.1a5 5 0 0 1-.638.082l.739.459.134.079-.024.018-.052.033-.073.053h-.005l-.977.628-5.301-3.246.043.491 5.065 3.151.135.079.105.065v.028l-1.177.757-4.907-3-.521-.319.047.516 5.331 3.3.094.057h.008l-.146.083-3.431 1.951-5.213-3.7v.541L8.789 21l3.788-2.232.615-.363.57-.334 1.938-2.366.008-.006 1-1.223 2.253-2.753 3.011-2.134.028-.525Zm-8.505.521 5.165 3.144.856-.545-.846-.536c-.055 0-.1.012-.156.012a5.04 5.04 0 0 1-2.468-.6l-.106-.064.326-.864-1.753-1.11Zm3.828 5.233-5.258-3.311-3.125 1.543 5.08 3.588Zm2.36-7.133.015.009m.404-2.831c0-.718-.546-1.147-1.461-1.147h-.028L10.724 9.1l1.401.825v-.147h.842c.767 0 1.904-.348 1.904-1.3m-1.9 2.473H12.7l2.477 1.423a1.34 1.34 0 0 0-.193-.588l-1.281-.76a3.6 3.6 0 0 0-.732-.075m.679-4.864c.107 0 .2.013.3.022l1.459-.98-1.009-.507-2.981 2.012a4.85 4.85 0 0 1 2.231-.547m.802 7.691a1.5 1.5 0 0 0 .312-.223l-4.265-2.615.036.4ZM7.354 6.7l.024.014 1.05 1.142v.014l.023.014 1.071 1.16v.015l.023.014 1.454 1.582-.393.22 4.235 2.578a1.37 1.37 0 0 0 .344-.908l-2.725-1.594h-.331v-.193l-.616-.359.091-.061.011-.007.514.295v-.533l-1.63-.966V9.11l-.03-.01.375-.243 2.225-1.494a3.5 3.5 0 0 0-1.413.511l-.158.1-.018-.048-.961.648-1.12-.65V7.91l-.057-.034.114-.083 4.858-3.259.021-.46-4.913 3.317-2.167-1.345.1.644Zm2.235 1.167.938.54.906-.607-.36-.935Zm3.069 6.116a4 4 0 0 0 .612.054 2.6 2.6 0 0 0 1.01-.186l-3.774-2.388-1.037.579ZM14.936 6.3a2.1 2.1 0 0 1 1.492 1.992 2.2 2.2 0 0 1-1.4 2.007 2.355 2.355 0 0 1 1.755 2.211L21.871 9l.129.064-6.29-3.283Zm-.784-.172a3.6 3.6 0 0 1 .586.115l.81-.543-.034-.018.021-.487Z"/></svg>

<?xml version="1.0" encoding="UTF-8"?>
<svg width="24px" fill="#44739e" height="24px" viewBox="0 0 24 24" version="1.1" xmlns="http://www.w3.org/2000/svg" xmlns:xlink="http://www.w3.org/1999/xlink">
            <path d="m 14.533,10.17 a 2.016,2.016 0 0 0 1.593,-1.882 c 0,-0.877 -0.65,-1.9 -2.479,-1.9 a 4.532,4.532 0 0 0 -2.218,0.571 l 0.216,0.564 a 3.648,3.648 0 0 1 1.763,-0.5 c 1.3,0 1.762,0.747 1.762,1.446 0,1.054 -1.108,1.6 -2.2,1.6 h -0.542 v 0.573 h 0.542 c 1.154,0 2.508,0.489 2.523,1.868 a 1.682,1.682 0 0 1 -0.476,1.207 2.385,2.385 0 0 1 -1.75,0.612 4.6,4.6 0 0 1 -1.956,-0.478 l -0.232,0.619 a 4.972,4.972 0 0 0 2.2,0.5 c 2.215,0.007 3.2,-1.213 3.2,-2.423 A 2.14,2.14 0 0 0 14.555,10.486 L 14.432,10.463 V 10.231 Z M 14.218,4.014 12.199,3 7.382,5.992 9.431,7.227 Z m -1.006,13.072 -0.107,-0.068 -5.01,-3.172 -1.081,0.605 5.284,3.216 z m -3.823,-4.524 1.7,1.055 0.073,-0.192 0.148,0.092 a 4.139,4.139 0 0 0 0.941,0.37 L 9.351,12.11 Z M 6.259,7.198 7.246,6.626 4.29,5.34 4.173,8.407 5.244,7.786 l 2.307,2.969 -5.55,3.736 0.873,1.032 6.596,-4.462 z m 10.51,5.481 a 2.473,2.473 0 0 1 -0.095,0.553 l 0.033,0.018 -0.049,0.033 a 2.7,2.7 0 0 1 -1.782,1.747 l -0.369,0.237 -0.167,-0.1 a 5.224,5.224 0 0 1 -0.638,0.082 l 0.739,0.459 0.134,0.079 -0.024,0.018 -0.052,0.033 -0.073,0.053 h -0.005 l -0.977,0.628 -5.3,-3.246 0.043,0.491 5.064,3.151 0.135,0.079 0.105,0.065 v 0.028 l -1.177,0.757 -4.906,-3 -0.521,-0.319 0.047,0.516 5.33,3.3 0.094,0.057 h 0.008 l -0.146,0.083 -3.43,1.951 -5.213,-3.7 v 0.541 L 8.79,21 l 3.787,-2.232 0.615,-0.363 0.57,-0.334 1.938,-2.366 0.008,-0.006 1,-1.223 2.253,-2.753 L 21.972,9.589 22,9.064 Z m -8.504,0.521 5.164,3.144 0.856,-0.545 -0.846,-0.536 c -0.055,0 -0.1,0.012 -0.156,0.012 a 5.038,5.038 0 0 1 -2.467,-0.6 l -0.106,-0.064 0.326,-0.864 -1.753,-1.11 z m 3.827,5.233 -5.257,-3.311 -3.125,1.543 5.08,3.588 z m 2.36,-7.133 0.015,0.009 m 0.404,-2.831 c 0,-0.718 -0.546,-1.147 -1.461,-1.147 h -0.028 l -2.657,1.769 1.4,0.825 V 9.778 h 0.842 c 0.767,0 1.904,-0.348 1.904,-1.3 z m -1.9,2.473 H 12.7 l 2.477,1.423 a 1.337,1.337 0 0 0 -0.193,-0.588 l -1.281,-0.76 A 3.584,3.584 0 0 0 12.971,10.951 Z M 13.65,6.087 c 0.107,0 0.2,0.013 0.3,0.022 L 15.409,5.129 14.4,4.622 11.42,6.634 a 4.854,4.854 0 0 1 2.23,-0.547 z m 0.802,7.691 a 1.456,1.456 0 0 0 0.312,-0.223 L 10.5,10.94 l 0.036,0.4 z M 7.355,6.7 7.379,6.714 8.429,7.856 V 7.87 l 0.023,0.014 1.071,1.16 v 0.015 l 0.023,0.014 1.454,1.582 -0.393,0.22 4.234,2.578 a 1.367,1.367 0 0 0 0.344,-0.908 L 12.46,10.951 h -0.331 v -0.193 l -0.615,-0.359 0.091,-0.061 0.011,-0.007 0.513,0.295 V 10.093 L 10.5,9.127 V 9.11 L 10.47,9.1 10.845,8.857 13.069,7.363 A 3.5,3.5 0 0 0 11.657,7.874 L 11.499,7.974 11.481,7.926 10.52,8.574 9.4,7.924 V 7.91 L 9.343,7.876 9.457,7.793 14.314,4.534 14.335,4.074 9.423,7.391 7.256,6.046 7.356,6.69 Z M 9.59,7.867 10.528,8.407 11.434,7.8 11.074,6.865 Z m 3.068,6.116 a 3.683,3.683 0 0 0 0.612,0.054 2.63,2.63 0 0 0 1.01,-0.186 L 10.507,11.463 9.47,12.042 Z M 14.936,6.3 a 2.1,2.1 0 0 1 1.492,1.992 2.2,2.2 0 0 1 -1.4,2.007 2.355,2.355 0 0 1 1.755,2.211 L 21.871,9 22,9.064 15.71,5.781 Z M 14.152,6.128 a 3.551,3.551 0 0 1 0.586,0.115 L 15.548,5.7 15.514,5.682 15.535,5.195 Z"/>

</svg>
